X:751
M:C
L:1/8
Q:1/4=140
K:G
d>G d/c/B/A/ G2G||
d>G d/c/B/A/ G2 G/A/B/c/|de/f/ ~g>d e>dg>B|ca/c/ Bg/B/ A2 AB/c/|
e/d/c/B/ d/c/B/A/ c/B/A/G/ B/A/G/F/|A/G/F/E/ D/E/D/B,/ G,2 G,/C/B,/A,/||

